!!!COM: Schiørring, Niels
!!!CDT: 1743-1798
!!!OPR@@DA: Choral-Bog
!!!ONM: 66
!!!OTL@@DA: Med Sorgen og Klagen hold Maade
**kern	**fb	**kern	**kern	**kern	**kern	**kern	**kern	**kern
*part6	*part6	*part6	*part5	*part5	*part4	*part3	*part2	*part1
*staff8	*	*staff7	*staff6	*staff5	*staff4	*staff3	*staff2	*staff1
*clefF4	*	*clefC1	*clefF4	*clefC1	*clefF4	*clefC4	*clefC3	*clefC1
*mclefF4	*	*mclefG2	*mclefF4	*mclefG2	*mclefF4	*mclefGv2	*mclefG2	*mclefG2
*k[b-]	*	*k[b-]	*k[b-]	*k[b-]	*k[b-]	*k[b-]	*k[b-]	*k[b-]
*F:	*	*F:	*F:	*F:	*F:	*F:	*F:	*F:
*M4/4	*	*M4/4	*M4/4	*M4/4	*M4/4	*M4/4	*M4/4	*M4/4
*met(c)	*	*met(c)	*met(c)	*met(c)	*met(c)	*met(c)	*met(c)	*met(c)
*MM180	*	*MM180	*MM180	*MM180	*MM180	*MM180	*MM180	*MM180
*	*above	*	*	*	*	*	*	*
*	*	*	*^	*^	*	*	*	*
=1	=1	=1	=1	=1	=1	=1	=1	=1	=1	=1
2F	.	2f	2A	2F	2f	2c	2F	2A	2c	2f
=2	=2	=2	=2	=2	=2	=2	=2	=2	=2	=2
2D	6	2b-	2F	2D	2b-	2.d	2D	2F	2d	2b-
2E	7	4g	4G	2E	4g	.	4E	4G	4d	4g
.	6 5	4g	4B-	.	4g	4c	4E	4B-	4c	4g
=3	=3	=3	=3	=3	=3	=3	=3	=3	=3	=3
2F	.	2a	2A	2F	2a	2c	2F	2A	2c	2a
2AA	6	4g	4ryy	2AA	4c	4c	4AA	4c	4c	4g
.	.	4f	4ryy	.	4c	4f	4AA	4c	4f	4f
=4	=4	=4	=4	=4	=4	=4	=4	=4	=4	=4
2BB-	6 5	1g	2ryy	2BB-	2d	2f	(2BB-	(2d	(2f	1g
2C	.	.	2c	2C	2ryy	2e	2C)	2c)	2e)	.
=5	=5	=5	=5	=5	=5	=5	=5	=5	=5	=5
2F	.	2f	2A	2F	2f	2c	2F	2A	2f	2f
2A	6	2f	2A	2A	2f	2c	2A	2c	2f	2f
=6	=6	=6	=6	=6	=6	=6	=6	=6	=6	=6
2G	6	2g	2B-	2G	2g	2e	2G	2B-	2e	2g
2F	.	4a	2c	2F	4a	2f	4F	4c	4f	4a
.	.	4a	.	.	4a	.	4F	4c	4f	4a
=7	=7	=7	=7	=7	=7	=7	=7	=7	=7	=7
2E	6	2cc	2G	2E	2cc	2g	2E	2c	2g	2cc
2F	4	4b-	[2F	2F	4b-	2c	4F	4c	4f	4b-
.	3	4a	.	.	4a	.	4F	4c	4f	4a
=8	=8	=8	=8	=8	=8	=8	=8	=8	=8	=8
2BB-	6 5	1g	2F]	2BB-	1g	2d	(2BB-	(2d	(2f	1g
2C	.	.	2E	2C	.	2c	2C)	4c	2e)	.
.	.	.	.	.	.	.	.	4B-)	.	.
=9	=9	=9	=9	=9	=9	=9	=9	=9	=9	=9
2F	.	2a	2F	2FF	2a	2c	2F	2A	2c	2a
2D	.	2f	2A	2D	2f	2d	2D	2A	2d	2f
=10	=10	=10	=10	=10	=10	=10	=10	=10	=10	=10
2C	6	2a	2c	2C	2a	2e	2C	2E	2e	2a
2BBn	6	4g	2G	2BBn	4g	2d	4BBn	4G	4d	4g
.	.	4g	.	.	4g	.	4BB	4G	4d	4g
=11	=11	=11	=11	=11	=11	=11	=11	=11	=11	=11
4AA	6	2f	4A	4AA	2f	4c	(4AA	4A	4c	2f
4BBn	5	.	2.G	4BBn	.	2d	4BBn)	2G	2d	.
2C	9	4e	.	2C	4e	.	4C	.	.	4e
.	8	4c	.	.	4c	4c	4C	4G	4c	4c
=12	=12	=12	=12	=12	=12	=12	=12	=12	=12	=12
2F	6 5	1d	2A	2F	1d	2c	2F	(2A	(2c	1d
2G	n	.	2G	2G	.	2Bn	2G	2G)	2Bn)	.
=13	=13	=13	=13	=13	=13	=13	=13	=13	=13	=13
2C	.	2c	2E	2C	2c	2G	2C	2E	2c	2c
*	*	*	*	*	*	*^	*	*	*	*
2AA	6	2cc	2F	2AA	2cc	4f	2c\	2AA	2F	(4f	2cc
.	-r5	.	.	.	.	4e-X	.	.	.	4e-X)	.
*	*	*	*	*	*	*v	*v	*	*	*	*
=14	=14	=14	=14	=14	=14	=14	=14	=14	=14	=14
*	*	*	*	*^	*	*	*	*	*	*
2BB-	.	2dd	2F	2BB-	2B-/	2dd	2d	2BB-	2F	2d	2dd
*	*	*	*	*v	*v	*	*	*	*	*	*
2G	.	4b-	2G	2G	4b-	2d	4G	4G	4d	4b-
.	.	4b-	.	.	4b-	.	4G	4G	4d	4b-
=15	=15	=15	=15	=15	=15	=15	=15	=15	=15	=15
2E	6	2cc	2G	2E	2cc	2c	2E	2G	2c	2cc
2F	4	4b-	[2F	2F	4b-	2c	4F	4F	4c	4b-
.	3	4a	.	.	4a	.	4F	4F	4c	4a
=16	=16	=16	=16	=16	=16	=16	=16	=16	=16	=16
2BB-	6 5	1g	2F]	2BB-	1g	2d	(2BB-	(2F	(2d	1g
2C	.	.	2E	2C	.	2c	2C)	2E)	2c)	.
=17	=17	=17	=17	=17	=17	=17	=17	=17	=17	=17
*	*	*	*	*	*	*^	*^	*	*	*
2FF	.	2f	2F	2FF	2f	2c	2A\	2F	2FF	2F	2A	2f
*	*	*	*v	*v	*	*	*	*v	*v	*	*	*
*	*	*	*	*v	*v	*v	*	*	*	*
==	==	==	==	==	==	==	==	==
*-	*-	*-	*-	*-	*-	*-	*-	*-
!!!system-decoration: {(s1,s2,s3,s4)}{(s5,s6)}{(s7,s8)}
!!!RDF**kern: > = above
!!!RDF**kern: < = below
!!!AGN: chorale
!!!EED: Derek Remeš
!!!EED2: Victor Phan
!!!END: 2023/11/28
!!!ENC: Wolfgang Drescher
!!!EEV: 2023/12/08
!!!title: @{ONM}. @{OTL}
!!!verovio: mnumInterval 1